dist/favicon.svg

<svg xmlns="http://www.w3.org/2000/svg" fill="none" viewBox="0 0 128 128"><defs/><path fill="url(#paint0_radial)" d="M78.8 117c-5.45 0-10.73-2.01-15.71-6-3.95-3.17-44.19-42.4-44.6-42.79-1.62-1.62-2.64-3.3-2.92-4.84-.29-1.6.2-3 1.5-4.3a5.98 5.98 0 014.28-1.85c1.94 0 3.93.92 5.59 2.59l16.63 15.98a1.5 1.5 0 002.1-.02 1.5 1.5 0 00.01-2.1L19.13 46.25c-2.66-2.66-3.91-6.73-.75-9.89a5.98 5.98 0 014.28-1.85c1.94 0 3.93.92 5.59 2.59l27.16 26.48a1.5 1.5 0 002.11-.01 1.5 1.5 0 00.01-2.11L24.91 28.02a8.44 8.44 0 01-2.58-5.08 5.94 5.94 0 011.83-4.8 5.98 5.98 0 014.28-1.85c1.94 0 3.93.92 5.59 2.58L67.3 51.31a1.5 1.5 0 002.11-.01 1.5 1.5 0 00.01-2.11L45.26 24.36a8.36 8.36 0 01-2.58-5.08 5.94 5.94 0 011.83-4.8 5.98 5.98 0 014.28-1.85c1.94 0 3.93.92 5.59 2.59 8.86 8.7 31.99 31.45 32.77 32.29.62.75 1.33.92 1.8.92 1.74 0 2.66-2.03 2.81-4.04.17-2.34-.45-5.13-1.11-8.08-.82-3.68-1.67-7.49-.73-9.72 1.85-4.38 6.13-7.92 8.43-7.92.23 0 .43.04.6.12 4.14 1.94 3.99 4.43 3.19 10.38l-.15 1.15c-.77 5.92 2.32 13.35 5.04 19.91 1.11 2.67 2.16 5.2 2.89 7.46a41.91 41.91 0 001.89 4.52c4.15 9.08 10.43 22.79-9.91 43.13C94.13 113.08 86.36 117 78.8 117z"/><path fill="#EDA600" d="M48.79 14.12c1.52 0 3.17.78 4.55 2.16C65.9 28.63 84.85 47.26 86.03 48.5a3.84 3.84 0 002.92 1.42c2.34 0 4.07-2.18 4.3-5.44.18-2.56-.46-5.45-1.14-8.51-.73-3.29-1.57-7.02-.81-8.81 1.7-4.02 5.61-6.97 7.07-7 2.99 1.42 3.09 2.76 2.28 8.8l-.15 1.15c-.82 6.32 2.35 13.95 5.14 20.67 1.1 2.64 2.13 5.14 2.85 7.34.47 1.45 1.19 3.02 1.95 4.68 2 4.38 4.5 9.83 4.1 16.51-.48 8.04-4.96 16.2-13.71 24.94-7.47 7.47-14.88 11.26-22.03 11.26-5.1 0-10.07-1.91-14.77-5.68-3.23-2.59-33.21-31.7-44.46-42.67-2.82-2.82-3.3-5.19-1.44-7.04a4.44 4.44 0 013.22-1.41c1.52 0 3.17.78 4.53 2.15l.04.04 16.61 15.96a2.99 2.99 0 004.21-.04 3 3 0 00.03-4.2L20.18 45.17a6.86 6.86 0 01-2.13-4.14 4.39 4.39 0 011.39-3.61 4.44 4.44 0 013.22-1.41c1.52 0 3.17.78 4.56 2.17l27.15 26.46a2.98 2.98 0 004.21-.03 3.01 3.01 0 00.03-4.22L25.96 26.95c-3.13-3.13-2.35-6.13-.73-7.75a4.44 4.44 0 013.22-1.41c1.52 0 3.17.78 4.56 2.17l33.26 32.43a2.98 2.98 0 004.21-.03 3 3 0 00.03-4.21l-24.2-24.86a6.86 6.86 0 01-2.13-4.14 4.39 4.39 0 011.39-3.61 4.46 4.46 0 013.22-1.42zm0-3c-1.9 0-3.77.72-5.34 2.29-3.5 3.5-2.78 8.48.73 11.99l24.17 24.83L35.1 17.81a9.57 9.57 0 00-6.65-3.02c-1.9 0-3.77.72-5.34 2.29-3.5 3.5-2.78 8.48.73 11.99L56.46 62.5 29.31 36.04a9.57 9.57 0 00-6.65-3.02c-1.9 0-3.77.72-5.34 2.29-3.5 3.5-2.78 8.48.73 11.99l26.56 27.39L28 58.73a9.57 9.57 0 00-6.65-3.02c-1.9 0-3.77.72-5.34 2.29-3.5 3.5-2.07 7.77 1.44 11.29 0 0 40.65 39.64 44.71 42.89 3.49 2.8 9.22 6.34 16.64 6.34 6.78 0 14.97-2.95 24.15-12.14 24.82-24.82 11.16-40.65 8.39-49.18-2.57-7.94-8.87-18.9-7.86-26.71.8-6.21 1.77-10.43-3.89-13.08a2.8 2.8 0 00-1.23-.26c-3.2 0-7.9 4.29-9.81 8.83-1.93 4.58 2.09 13.17 1.72 18.28-.09 1.26-.6 2.65-1.31 2.65-.21 0-.44-.12-.68-.41-.44-.53-32.83-32.35-32.83-32.35-1.94-1.94-4.33-3.03-6.66-3.03z"/><path fill="#EDA600" d="M87.88 44.63c-4.77 10.65-2.06 22.47 4.68 34.78.93 1.7 2.52.87 1.71-.88-8.5-18.2-.88-34.64-.88-34.64l-5.51.74z"/><path fill="#424242" d="M15.64 79.89c1.71 4.93 5.22 8.39 10.34 9.63 2.81.68 4.02-3.66 1.2-4.34a9.57 9.57 0 01-7.19-6.48c-.95-2.72-5.3-1.55-4.35 1.19z"/><path fill="#424242" d="M5.97 80.88c3.53 11.1 13.88 16.68 25.19 14.44 2.84-.56 1.64-4.9-1.2-4.34-8.83 1.75-16.9-2.64-19.66-11.3-.87-2.75-5.21-1.58-4.33 1.2zM68.57 17.37c3.52.62 6.36 2.41 7.78 5.79.47 1.13 1.48 1.91 2.77 1.57 1.06-.28 2.04-1.65 1.57-2.77-2.02-4.82-5.71-8.02-10.92-8.94-2.83-.49-4.05 3.85-1.2 4.35z"/><path fill="#424242" d="M67.21 7.39c9.07.98 14.77 8.33 14.75 17.24-.01 2.9 4.49 2.9 4.5 0 .03-11.57-7.75-20.49-19.25-21.74-2.87-.31-2.85 4.19 0 4.5z"/><defs><radialGradient id="paint0_radial" cx="0" cy="0" r="1" gradientTransform="rotate(-45 67.47 -33.37) scale(89.8361)" gradientUnits="userSpaceOnUse"><stop offset=".35" stop-color="#FFCA28"/><stop offset=".87" stop-color="#FFB300"/></radialGradient></defs></svg>

<svg width="128" height="128" viewBox="0 0 128 128" fill="none" xmlns="http://www.w3.org/2000/svg">
<path d="M78.8 117C73.35 117 68.07 114.99 63.09 111C59.14 107.83 18.9 68.6 18.49 68.21C16.87 66.59 15.85 64.91 15.57 63.37C15.28 61.77 15.77 60.37 17.07 59.07C18.28 57.86 19.76 57.22 21.35 57.22C23.29 57.22 25.28 58.14 26.94 59.81L43.57 75.79C43.86 76.07 44.24 76.21 44.61 76.21C45 76.21 45.38 76.06 45.67 75.77C46.25 75.19 46.25 74.25 45.68 73.67L19.13 46.25C16.47 43.59 15.22 39.52 18.38 36.36C19.59 35.15 21.07 34.51 22.66 34.51C24.6 34.51 26.59 35.43 28.25 37.1L55.41 63.58C55.7 63.86 56.08 64.01 56.46 64.01C56.84 64.01 57.23 63.86 57.52 63.57C58.1 62.99 58.11 62.05 57.53 61.46L24.91 28.02C23.4 26.51 22.49 24.7 22.33 22.94C22.18 21.15 22.81 19.49 24.16 18.14C25.37 16.93 26.85 16.29 28.44 16.29C30.38 16.29 32.37 17.21 34.03 18.87L67.3 51.31C67.59 51.59 67.97 51.74 68.35 51.74C68.73 51.74 69.12 51.59 69.41 51.3C69.99 50.72 70 49.78 69.42 49.19L45.26 24.36C43.74 22.84 42.83 21.04 42.68 19.28C42.53 17.49 43.16 15.83 44.51 14.48C45.72 13.27 47.2 12.63 48.79 12.63C50.73 12.63 52.72 13.55 54.38 15.22C63.24 23.92 86.37 46.67 87.15 47.51C87.77 48.26 88.48 48.43 88.95 48.43C90.69 48.43 91.61 46.4 91.76 44.39C91.93 42.05 91.31 39.26 90.65 36.31C89.83 32.63 88.98 28.82 89.92 26.59C91.77 22.21 96.05 18.67 98.35 18.67C98.58 18.67 98.78 18.71 98.95 18.79C103.09 20.73 102.94 23.22 102.14 29.17L101.99 30.32C101.22 36.24 104.31 43.67 107.03 50.23C108.14 52.9 109.19 55.43 109.92 57.69C110.36 59.06 111.03 60.52 111.81 62.21C115.96 71.29 122.24 85 101.9 105.34C94.13 113.08 86.36 117 78.8 117V117Z" fill="url(#paint0_radial)"/>
<path d="M48.79 14.12C50.31 14.12 51.96 14.9 53.34 16.28C65.9 28.63 84.85 47.26 86.03 48.5C87.1 49.73 88.31 49.92 88.95 49.92C91.29 49.92 93.02 47.74 93.25 44.48C93.43 41.92 92.79 39.03 92.11 35.97C91.38 32.68 90.54 28.95 91.3 27.16C93 23.14 96.91 20.19 98.37 20.16C101.36 21.58 101.46 22.92 100.65 28.96L100.5 30.11C99.68 36.43 102.85 44.06 105.64 50.78C106.74 53.42 107.77 55.92 108.49 58.12C108.96 59.57 109.68 61.14 110.44 62.8C112.44 67.18 114.94 72.63 114.54 79.31C114.06 87.35 109.58 95.51 100.83 104.25C93.36 111.72 85.95 115.51 78.8 115.51C73.7 115.51 68.73 113.6 64.03 109.83C60.8 107.24 30.82 78.13 19.57 67.16C16.75 64.34 16.27 61.97 18.13 60.12C19.07 59.18 20.15 58.71 21.35 58.71C22.87 58.71 24.52 59.49 25.88 60.86L25.92 60.9L42.53 76.86C43.11 77.42 43.86 77.7 44.61 77.7C45.38 77.7 46.15 77.4 46.74 76.82C47.89 75.66 47.91 73.79 46.77 72.62L20.18 45.17C18.93 43.92 18.17 42.45 18.05 41.03C17.93 39.67 18.4 38.46 19.44 37.42C20.38 36.48 21.46 36.01 22.66 36.01C24.18 36.01 25.83 36.79 27.22 38.18L54.37 64.64C54.95 65.21 55.71 65.49 56.46 65.49C57.23 65.49 58 65.2 58.58 64.61C59.74 63.45 59.75 61.57 58.61 60.39L25.96 26.95C22.83 23.82 23.61 20.82 25.23 19.2C26.17 18.26 27.25 17.79 28.45 17.79C29.97 17.79 31.62 18.57 33.01 19.96L66.27 52.39C66.85 52.96 67.61 53.24 68.36 53.24C69.13 53.24 69.9 52.95 70.48 52.36C71.64 51.2 71.65 49.32 70.51 48.15L46.31 23.29C45.06 22.04 44.3 20.57 44.18 19.15C44.06 17.79 44.53 16.58 45.57 15.54C46.51 14.6 47.59 14.12 48.79 14.12V14.12ZM48.79 11.12C46.89 11.12 45.02 11.84 43.45 13.41C39.95 16.91 40.67 21.89 44.18 25.4L68.35 50.23L35.1 17.81C33.16 15.87 30.78 14.79 28.45 14.79C26.55 14.79 24.68 15.51 23.11 17.08C19.61 20.58 20.33 25.56 23.84 29.07L56.46 62.5L29.31 36.04C27.37 34.1 24.99 33.02 22.66 33.02C20.76 33.02 18.89 33.74 17.32 35.31C13.82 38.81 14.54 43.79 18.05 47.3L44.61 74.69L28 58.73C26.06 56.79 23.68 55.71 21.35 55.71C19.45 55.71 17.58 56.43 16.01 58C12.51 61.5 13.94 65.77 17.45 69.29C17.45 69.29 58.1 108.93 62.16 112.18C65.65 114.98 71.38 118.52 78.8 118.52C85.58 118.52 93.77 115.57 102.95 106.38C127.77 81.56 114.11 65.73 111.34 57.2C108.77 49.26 102.47 38.3 103.48 30.49C104.28 24.28 105.25 20.06 99.59 17.41C99.22 17.23 98.8 17.15 98.36 17.15C95.16 17.15 90.46 21.44 88.55 25.98C86.62 30.56 90.64 39.15 90.27 44.26C90.18 45.52 89.67 46.91 88.96 46.91C88.75 46.91 88.52 46.79 88.28 46.5C87.84 45.97 55.45 14.15 55.45 14.15C53.51 12.21 51.12 11.12 48.79 11.12V11.12Z" fill="#EDA600"/>
<path d="M87.88 44.63C83.11 55.28 85.82 67.1 92.56 79.41C93.49 81.11 95.08 80.28 94.27 78.53C85.77 60.33 93.39 43.89 93.39 43.89L87.88 44.63Z" fill="#EDA600"/>
<path d="M15.64 79.8901C17.35 84.8201 20.86 88.2801 25.98 89.5201C28.79 90.2001 30 85.8601 27.18 85.1801C23.64 84.3301 21.19 82.1601 19.99 78.7001C19.04 75.9801 14.69 77.1501 15.64 79.8901V79.8901Z" fill="#424242"/>
<path d="M5.97 80.88C9.5 91.98 19.85 97.56 31.16 95.32C34 94.76 32.8 90.42 29.96 90.98C21.13 92.73 13.06 88.34 10.3 79.68C9.43 76.93 5.09 78.1 5.97 80.88V80.88Z" fill="#424242"/>
<path d="M68.57 17.3699C72.09 17.9899 74.93 19.7799 76.35 23.1599C76.82 24.2899 77.83 25.0699 79.12 24.7299C80.18 24.4499 81.16 23.0799 80.69 21.9599C78.67 17.1399 74.98 13.9399 69.77 13.0199C66.94 12.5299 65.72 16.8699 68.57 17.3699V17.3699Z" fill="#424242"/>
<path d="M67.21 7.39006C76.28 8.37006 81.98 15.7201 81.96 24.6301C81.95 27.5301 86.45 27.5301 86.46 24.6301C86.49 13.0601 78.71 4.14006 67.21 2.89006C64.34 2.58006 64.36 7.08006 67.21 7.39006V7.39006Z" fill="#424242"/>
<defs>
<radialGradient id="paint0_radial" cx="0" cy="0" r="1" gradientUnits="userSpaceOnUse" gradientTransform="translate(43.3553 37.934) rotate(-45) scale(89.8361)">
<stop offset="0.3533" stop-color="#FFCA28"/>
<stop offset="0.8723" stop-color="#FFB300"/>
</radialGradient>
</defs>
</svg>
